polaris-icons/icons/newicons/ButtonMinor.svg

<svg width="20" height="20" viewBox="0 0 20 20" fill="none" xmlns="http://www.w3.org/2000/svg">
<path d="M5.75 4C3.67893 4 2 5.67893 2 7.75V10.25C2 12.3211 3.67893 14 5.75 14H8.25C8.66421 14 9 13.6642 9 13.25C9 12.8358 8.66421 12.5 8.25 12.5H5.75C4.50736 12.5 3.5 11.4926 3.5 10.25V7.75C3.5 6.50736 4.50736 5.5 5.75 5.5H14.25C15.4926 5.5 16.5 6.50736 16.5 7.75V8.25C16.5 8.66421 16.8358 9 17.25 9C17.6642 9 18 8.66421 18 8.25V7.75C18 5.67893 16.3211 4 14.25 4H5.75Z" fill="black"/>
<path d="M10.9944 8.28754C10.722 8.19142 10.4187 8.26023 10.2144 8.46446C10.0102 8.66869 9.9414 8.97204 10.0375 9.2444L12.1588 15.2548C12.2446 15.4977 12.449 15.6796 12.7002 15.7366C12.9514 15.7936 13.2143 15.7177 13.3964 15.5355L14.6339 14.2981L16.0481 15.7123C16.341 16.0052 16.8158 16.0052 17.1087 15.7123L17.4623 15.3587C17.7552 15.0659 17.7552 14.591 17.4623 14.2981L16.0481 12.8839L17.2855 11.6464C17.4677 11.4643 17.5436 11.2014 17.4866 10.9502C17.4296 10.699 17.2477 10.4946 17.0048 10.4089L10.9944 8.28754Z" fill="black"/>
</svg>

<svg viewBox="0 0 20 20" fill="none" xmlns="http://www.w3.org/2000/svg"><path d="M5.75 4a3.75 3.75 0 0 0-3.75 3.75v2.5a3.75 3.75 0 0 0 3.75 3.75h2.5a.75.75 0 0 0 0-1.5h-2.5a2.25 2.25 0 0 1-2.25-2.25v-2.5a2.25 2.25 0 0 1 2.25-2.25h8.5a2.25 2.25 0 0 1 2.25 2.25v.5a.75.75 0 0 0 1.5 0v-.5a3.75 3.75 0 0 0-3.75-3.75h-8.5Z" fill="#000"/><path d="M10.994 8.288a.75.75 0 0 0-.957.956l2.122 6.01a.75.75 0 0 0 1.237.282l1.238-1.238 1.414 1.414a.75.75 0 0 0 1.06 0l.354-.353a.75.75 0 0 0 0-1.06l-1.414-1.415 1.238-1.238a.75.75 0 0 0-.281-1.237l-6.01-2.121Z" fill="#000"/></svg>
